svg/emoji_u271d.svg

<svg enable-background="new 0 0 128 128" viewBox="0 0 128 128" xmlns="http://www.w3.org/2000/svg"><linearGradient id="a" x1="64" x2="64" y1="4.25" y2="124.41" gradientUnits="userSpaceOnUse"><stop stop-color="#B388FF" offset="0"/><stop stop-color="#A175FF" offset=".3773"/><stop stop-color="#7C4DFF" offset="1"/></linearGradient><path d="m116 124h-104c-4.42 0-8-3.58-8-8v-104c0-4.42 3.58-8 8-8h104c4.42 0 8 3.58 8 8v104c0 4.42-3.58 8-8 8z" fill="url(#a)"/><g opacity=".2"><path d="m116 7c2.76 0 5 2.24 5 5v104c0 2.76-2.24 5-5 5h-104c-2.76 0-5-2.24-5-5v-104c0-2.76 2.24-5 5-5h104m0-3h-104c-4.42 0-8 3.58-8 8v104c0 4.42 3.58 8 8 8h104c4.42 0 8-3.58 8-8v-104c0-4.42-3.58-8-8-8z" fill="#424242"/></g><g opacity=".2"><path d="m64 16c2.76 0 5 2.24 5 5v22h18c2.76 0 5 2.24 5 5s-2.24 5-5 5h-18v54c0 2.76-2.24 5-5 5s-5-2.24-5-5v-54h-18c-2.76 0-5-2.24-5-5s2.24-5 5-5h18v-22c0-2.76 2.24-5 5-5m0-3c-4.41 0-8 3.59-8 8v19h-15c-4.41 0-8 3.59-8 8s3.59 8 8 8h15v51c0 4.41 3.59 8 8 8s8-3.59 8-8v-51h15c4.41 0 8-3.59 8-8s-3.59-8-8-8h-15v-19c0-4.41-3.59-8-8-8z" fill="#424242"/></g><path d="m87 43h-18v-22c0-2.76-2.24-5-5-5s-5 2.24-5 5v22h-18c-2.76 0-5 2.24-5 5s2.24 5 5 5h18v54c0 2.76 2.24 5 5 5s5-2.24 5-5v-54h18c2.76 0 5-2.24 5-5s-2.24-5-5-5z" fill="#FAFAFA"/></svg>

<svg width="128" height="128" style="enable-background:new 0 0 128 128;" xmlns="http://www.w3.org/2000/svg" xmlns:xlink="http://www.w3.org/1999/xlink">
  <g>
    <linearGradient id="SVGID_1_" gradientUnits="userSpaceOnUse" x1="64" x2="64" y1="4.25" y2="124.4088">
      <stop offset="0" style="stop-color:#B388FF"/>
      <stop offset="0.3773" style="stop-color:#A175FF"/>
      <stop offset="1" style="stop-color:#7C4DFF"/>
    </linearGradient>
    <path d="M116,124H12c-4.42,0-8-3.58-8-8V12c0-4.42,3.58-8,8-8h104c4.42,0,8,3.58,8,8v104 C124,120.42,120.42,124,116,124z" style="fill:url(#SVGID_1_);"/>
    <g style="opacity:0.2;">
      <path d="M116,7c2.76,0,5,2.24,5,5v104c0,2.76-2.24,5-5,5H12c-2.76,0-5-2.24-5-5V12c0-2.76,2.24-5,5-5H116 M116,4H12c-4.42,0-8,3.58-8,8v104c0,4.42,3.58,8,8,8h104c4.42,0,8-3.58,8-8V12C124,7.58,120.42,4,116,4L116,4z" style="fill:#424242;"/>
    </g>
    <g style="opacity:0.2;">
      <path d="M64,16c2.76,0,5,2.24,5,5v22h18c2.76,0,5,2.24,5,5s-2.24,5-5,5H69v54c0,2.76-2.24,5-5,5 c-2.76,0-5-2.24-5-5V53H41c-2.76,0-5-2.24-5-5s2.24-5,5-5h18V21C59,18.24,61.24,16,64,16 M64,13c-4.41,0-8,3.59-8,8v19H41 c-4.41,0-8,3.59-8,8s3.59,8,8,8h15v51c0,4.41,3.59,8,8,8s8-3.59,8-8V56h15c4.41,0,8-3.59,8-8s-3.59-8-8-8H72V21 C72,16.59,68.41,13,64,13L64,13z" style="fill:#424242;"/>
    </g>
    <path d="M87,43H69V21c0-2.76-2.24-5-5-5c-2.76,0-5,2.24-5,5v22H41c-2.76,0-5,2.24-5,5s2.24,5,5,5h18v54 c0,2.76,2.24,5,5,5c2.76,0,5-2.24,5-5V53h18c2.76,0,5-2.24,5-5S89.76,43,87,43z" style="fill:#FAFAFA;"/>
  </g>
</svg>
